X:139
M:2/4
L:1/8
Q:1/4=160
K:A
bagf|e4|e2 ec|d2 Bd|c2 Ac|B2E2|[cC]EAc|FdcB|cABG| A4:|

